images/clock.svg

<svg height="512pt" viewBox="0 0 512 512" width="512pt" xmlns="http://www.w3.org/2000/svg"><path d="m256 512c-141.164062 0-256-114.835938-256-256s114.835938-256 256-256 256 114.835938 256 256-114.835938 256-256 256zm0-480c-123.519531 0-224 100.480469-224 224s100.480469 224 224 224 224-100.480469 224-224-100.480469-224-224-224zm0 0"/><path d="m368 394.667969c-4.097656 0-8.191406-1.558594-11.308594-4.695313l-112-112c-3.007812-3.007812-4.691406-7.082031-4.691406-11.304687v-149.335938c0-8.832031 7.167969-16 16-16s16 7.167969 16 16v142.699219l107.308594 107.308594c6.25 6.25 6.25 16.382812 0 22.632812-3.117188 3.136719-7.210938 4.695313-11.308594 4.695313zm0 0"/></svg>

<?xml version="1.0" encoding="utf-8"?>
<!-- Generator: Adobe Illustrator 24.2.0, SVG Export Plug-In . SVG Version: 6.00 Build 0)  -->
<svg version="1.1" id="Layer_1" xmlns="http://www.w3.org/2000/svg" xmlns:xlink="http://www.w3.org/1999/xlink" x="0px" y="0px"
	 viewBox="0 0 512 512" style="enable-background:new 0 0 512 512;" xml:space="preserve">
<style type="text/css">
	.st0{fill:#FFFFFF;}
</style>
<path class="st0" d="M256,512C114.8,512,0,397.2,0,256S114.8,0,256,0s256,114.8,256,256S397.2,512,256,512z M256,32
	C132.5,32,32,132.5,32,256s100.5,224,224,224s224-100.5,224-224S379.5,32,256,32z"/>
<path class="st0" d="M368,394.7c-4.1,0-8.2-1.6-11.3-4.7l-112-112c-3-3-4.7-7.1-4.7-11.3V117.3c0-8.8,7.2-16,16-16s16,7.2,16,16V260
	l107.3,107.3c6.2,6.2,6.2,16.4,0,22.6C376.2,393.1,372.1,394.7,368,394.7z"/>
</svg>
